images/vk_color_white.svg

<svg width="16" height="16" viewBox="0 0 16 16" fill="none" xmlns="http://www.w3.org/2000/svg">
<path fill-rule="evenodd" clip-rule="evenodd" d="M8 0C3.58172 0 0 3.35786 0 7.5C0 11.6421 3.58172 15 8 15C12.4183 15 16 11.6421 16 7.5C16 3.35786 12.4183 0 8 0ZM8.65219 9.86733C8.57331 9.9453 8.4193 9.96104 8.4193 9.96104H7.90928C7.90928 9.96104 6.78407 10.0233 5.79282 9.07382C4.71185 8.03796 3.75733 5.98275 3.75733 5.98275C3.75733 5.98275 3.70224 5.84794 3.76192 5.78303C3.82912 5.70967 4.01234 5.70506 4.01234 5.70506L5.23147 5.69776C5.23147 5.69776 5.34624 5.71505 5.42846 5.77074C5.49649 5.81683 5.53447 5.90248 5.53447 5.90248C5.53447 5.90248 5.73147 6.36107 5.99232 6.77588C6.50193 7.5859 6.73899 7.76296 6.91178 7.67616C7.16387 7.54979 7.08833 6.53122 7.08833 6.53122C7.08833 6.53122 7.09292 6.16173 6.96145 5.99696C6.85961 5.86945 6.66762 5.83219 6.5829 5.82182C6.51403 5.81337 6.62672 5.66665 6.7728 5.60098C6.99233 5.50227 7.37965 5.49651 7.8375 5.50073C8.19435 5.50419 8.29702 5.52455 8.43642 5.55566C8.75995 5.6275 8.74985 5.85775 8.72805 6.35467C8.72153 6.50329 8.71397 6.67575 8.71397 6.87497C8.71397 6.91973 8.71255 6.96745 8.71109 7.01655C8.70352 7.27113 8.69486 7.56265 8.87716 7.67116C8.97064 7.72647 9.19894 7.67923 9.77032 6.78663C10.0412 6.36337 10.244 5.86599 10.244 5.86599C10.244 5.86599 10.2887 5.77727 10.3576 5.73925C10.4281 5.70045 10.5232 5.71236 10.5232 5.71236L11.8062 5.70506C11.8062 5.70506 12.1919 5.66243 12.2541 5.82297C12.3196 5.99082 12.1101 6.38335 11.5859 7.02629C11.0903 7.63432 10.8482 7.85946 10.8686 8.05762C10.8836 8.20357 11.041 8.33487 11.3442 8.59372C11.9743 9.1321 12.1432 9.41536 12.1838 9.48341C12.1872 9.48905 12.1897 9.49322 12.1915 9.49592C12.474 9.92725 11.878 9.96104 11.878 9.96104L10.7382 9.97564C10.7382 9.97564 10.4936 10.0202 10.1714 9.81663C10.0026 9.71009 9.83769 9.53608 9.6806 9.37033C9.4407 9.11722 9.21907 8.88338 9.02991 8.93862C8.7123 9.03157 8.7219 9.66108 8.7219 9.66108C8.7219 9.66108 8.7244 9.79589 8.65219 9.86733Z" fill="#4F4F4F"/>
</svg>

<svg width="16" height="16" fill="none" xmlns="http://www.w3.org/2000/svg"><path fill-rule="evenodd" clip-rule="evenodd" d="M8 0C3.582 0 0 3.358 0 7.5 0 11.642 3.582 15 8 15s8-3.358 8-7.5C16 3.358 12.418 0 8 0zm.652 9.867c-.079.078-.233.094-.233.094h-.51s-1.125.062-2.116-.887C4.712 8.038 3.757 5.983 3.757 5.983s-.055-.135.005-.2c.067-.073.25-.078.25-.078l1.22-.007s.114.017.196.073a.353.353 0 01.106.131s.197.46.458.874c.51.81.747.987.92.9.252-.126.176-1.145.176-1.145s.005-.37-.127-.534c-.101-.128-.293-.165-.378-.175-.069-.009.044-.155.19-.221.22-.099.607-.104 1.065-.1.356.003.459.024.598.055.324.072.314.302.292.799-.006.148-.014.32-.014.52l-.003.142c-.007.254-.016.546.166.654.094.055.322.008.893-.884.271-.424.474-.921.474-.921s.045-.089.114-.127c.07-.039.165-.027.165-.027l1.283-.007s.386-.043.448.118c.066.168-.144.56-.668 1.203-.496.608-.738.833-.717 1.032.015.146.172.277.475.536.63.538.8.821.84.89l.008.012c.282.431-.314.465-.314.465l-1.14.015s-.244.044-.567-.16c-.168-.106-.333-.28-.49-.446-.24-.253-.462-.487-.651-.431-.318.093-.308.722-.308.722s.002.135-.07.206z" fill="#4F4F4F"/></svg>
